X: 9502
T: Dark Island, The
R: waltz
M: 3/4
K: Gmajor
DE|:A3 B2{cB} A|G3 A G2|E3{FE} D CE|{E}D4 {DEG}A2|B3 A GA|B d4 D|dB2 D d<B|A4 D<E|
A3 B2{cB} A|G3 A G2|E3{FE} D CE|{E}D4 {DEG}A2|B3 D d<B|
A3 D B2{cBA}|1 G6|{AGE}G4 E2:|2 G6|{AGE}G3 ABc||
|:d3 D D2|B3 DD2|E<GG2 E2|D4 E/G/A|B2 BA GA|B d4 d|B2 D d<B|A4 E2|
A3 B2{cB} A|G3 A G2|E3{FE} D CE|D4 {DEG}A2|B3 D d<B|
A3 D B2{cBA}|1 G6|{AGE}G3 ABc:|2 G6|{AGE}G6||

